X:1
T:The Turkey-Rogherlee
M:4/4
L:1/8
K:Bb
 F2| B2 B2 d2 BB| c2 c2 G4| A2 AA G2 F2| B6| F2| B2 B2 d2 BB| c2 c2 G2 GG|\
 A2 A2 GG F2| AA AA G2| FF| AA AA G F2 F| AA AA G2 FF| AA AA G2 F2|\
 G2 F2 B2||

